icons/svg/camera_56.svg

<?xml version="1.0" encoding="UTF-8"?>
<svg width="56px" height="56px" viewBox="0 0 56 56" version="1.1" xmlns="http://www.w3.org/2000/svg" xmlns:xlink="http://www.w3.org/1999/xlink">
    <!-- Generator: Sketch 57.1 (83088) - https://sketch.com -->
    <title>camera_56</title>
    <desc>Created with Sketch.</desc>
    <g id="Icons-Webex" stroke="none" stroke-width="1" fill="none" fill-rule="evenodd">
        <g id="activities/camera_56" fill="#171B1F">
            <path d="M54,38.0874 C54,38.6774 53.625,39.0414 53.273,39.1854 C52.833,39.3654 52.367,39.2694 52.029,38.9254 L42,28.7424 L42,27.2574 L52.029,17.0734 C52.367,16.7304 52.833,16.6334 53.273,16.8154 C53.625,16.9594 54,17.3224 54,17.9124 L54,38.0874 Z M36.493,46.0004 L6.507,46.0004 C4.021,46.0004 2,43.9784 2,41.4934 L2,14.5064 C2,12.0224 4.021,10.0004 6.507,10.0004 L36.493,10.0004 C38.979,10.0004 41,12.0224 41,14.5064 L41,27.0264 C40.998,27.0504 40.998,27.0734 41,27.0974 L41,28.9024 C40.998,28.9264 40.998,28.9494 41,28.9734 L41,41.4934 C41,43.9784 38.979,46.0004 36.493,46.0004 L36.493,46.0004 Z M53.652,15.8894 C52.834,15.5534 51.939,15.7394 51.316,16.3724 L42,25.8324 L42,14.5064 C42,11.4704 39.529,9.0004 36.493,9.0004 L6.507,9.0004 C3.471,9.0004 1,11.4704 1,14.5064 L1,41.4934 C1,44.5294 3.471,47.0004 6.507,47.0004 L36.493,47.0004 C39.529,47.0004 42,44.5294 42,41.4934 L42,30.1684 L51.316,39.6274 C51.734,40.0514 52.273,40.2754 52.831,40.2744 C53.104,40.2744 53.383,40.2204 53.652,40.1104 C54.483,39.7694 55,38.9944 55,38.0874 L55,17.9124 C55,17.0054 54.483,16.2304 53.652,15.8894 L53.652,15.8894 Z" id="fill"></path>
        </g>
    </g>
</svg>

<svg width="56" height="56" xmlns="http://www.w3.org/2000/svg"><path d="M54 38.087c0 .59-.375.954-.727 1.098-.44.18-.906.084-1.244-.26L42 28.742v-1.485l10.029-10.184c.338-.343.804-.44 1.244-.258.352.144.727.507.727 1.097v20.175zM36.493 46H6.507A4.512 4.512 0 012 41.493V14.506A4.511 4.511 0 016.507 10h29.986A4.511 4.511 0 0141 14.506v12.52a.42.42 0 000 .071v1.805a.42.42 0 000 .071v12.52A4.512 4.512 0 0136.493 46zm17.159-30.11a2.104 2.104 0 00-2.336.482L42 25.832V14.506A5.513 5.513 0 0036.493 9H6.507A5.513 5.513 0 001 14.506v26.987A5.514 5.514 0 006.507 47h29.986A5.514 5.514 0 0042 41.493V30.168l9.316 9.46a2.112 2.112 0 002.336.482A2.148 2.148 0 0055 38.087V17.912c0-.907-.517-1.682-1.348-2.023z" fill="#171B1F" fill-rule="evenodd"/></svg>
